dist/assets/icons/commercial.svg

<svg width="24" height="22" viewBox="0 0 24 22" fill="none" xmlns="http://www.w3.org/2000/svg">
<path fill-rule="evenodd" clip-rule="evenodd" d="M23.4789 6.2612L12.0001 0L0.52124 6.2612L1.00009 8.13909H3.00009V16.1391H2.00009V18.1391H22.0001V16.1391H21.0001V8.13909H23.0001L23.4789 6.2612ZM5.00009 16.1391V8.13909H8.00009V16.1391H5.00009ZM10.0001 16.1391V8.13909H14.0001V16.1391H10.0001ZM16.0001 16.1391V8.13909H19.0001V16.1391H16.0001ZM12.0001 2.27817L19.0784 6.13909H4.92175L12.0001 2.27817ZM0 21.1391H24V19.1391H0V21.1391Z" fill="#FF5C00"/>
</svg>

<svg width="24" height="22" fill="none" xmlns="http://www.w3.org/2000/svg"><path fill-rule="evenodd" clip-rule="evenodd" d="M23.479 6.261 12 0 .521 6.261l.48 1.878h2v8H2v2h20v-2h-1v-8h2l.478-1.878ZM5 16.14v-8h3v8H5Zm5 0v-8h4v8h-4Zm6 0v-8h3v8h-3ZM12 2.28l7.078 3.86H4.922L12 2.28ZM0 21.138h24v-2H0v2Z" fill="#FF5C00"/></svg>
